X:63
M:2/4
L:1/8
K:G
|: (g/a/) | (b/a/g/f/) gd | dBgB | dBgB | aA A(g/a/) | (b/a/g/f/) gB | dBgB | A(B/c/B)A | G[G,G] [G,G] :|

